X:4
T:No.58 Mazurka
C:mazurka
M:3/4
L:1/8
K:G
DG||B2BA GB|d2d2AB|c2ce dc|B2B2DG|
B2BA GB|d2d2AB|cB cA FA|[1G2G2DG:|
|[2G2G2Bd||e2eg fe|d2d2AB|cB ce dc|B2B2cd|
e2eg fe|d2d2AB|cB cA FA|[1G2G2Bd:|[2G2G4||
